packages/tokens/icons/feedback/size16Px.svg

<svg viewBox="0 0 16 16" fill="none" xmlns="http://www.w3.org/2000/svg" width="1em" height="1em"><path d="M2.62302 14.2806C2.61408 14.2885 2.60542 14.2968 2.59707 14.3053C2.38176 14.5261 2.12894 14.5423 1.91763 14.4383C1.69775 14.3301 1.5 14.0746 1.5 13.6925L1.5 2.30491C1.5 1.80625 1.84966 1.5 2.16667 1.5L13.8333 1.5C14.1503 1.5 14.5 1.80625 14.5 2.30491L14.5 11.6951C14.5 12.1938 14.1503 12.5 13.8333 12.5L4.81818 12.5C4.69581 12.5 4.57769 12.5449 4.48619 12.6261L2.62302 14.2806Z" stroke="currentColor" stroke-linecap="round" stroke-linejoin="round"/><circle cx="8" cy="7" r="0.5" stroke="currentColor"/><circle cx="5" cy="7" r="0.5" stroke="currentColor"/><circle cx="11" cy="7" r="0.5" stroke="currentColor"/></svg>

<svg xmlns="http://www.w3.org/2000/svg" fill="none" viewBox="0 0 16 16" width="1em" height="1em"><path stroke="currentColor" stroke-linecap="round" stroke-linejoin="round" d="M2.623 14.28a.509.509 0 0 0-.026.025c-.215.221-.468.237-.68.133-.22-.108-.417-.363-.417-.745V2.305c0-.499.35-.805.667-.805h11.666c.317 0 .667.306.667.805v9.39c0 .499-.35.805-.667.805H4.818a.5.5 0 0 0-.332.126l-1.863 1.655Z"/><circle cx="8" cy="7" r=".5" stroke="currentColor"/><circle cx="5" cy="7" r=".5" stroke="currentColor"/><circle cx="11" cy="7" r=".5" stroke="currentColor"/></svg>
